images/icon_back_top.svg

<?xml version="1.0" encoding="UTF-8"?>
<svg width="18px" height="18px" viewBox="0 0 18 18" version="1.1" xmlns="http://www.w3.org/2000/svg" xmlns:xlink="http://www.w3.org/1999/xlink">
    <title>icon_back_top</title>
    <g id="dummy" stroke="none" stroke-width="1" fill="none" fill-rule="evenodd" opacity="0.5">
        <g id="2.1_搜尋檢索" transform="translate(-1405.000000, -668.000000)" fill-rule="nonzero">
            <g id="编组-9" transform="translate(1396.000000, 659.000000)">
                <g id="icon_back_top" transform="translate(9.000000, 9.000000)">
                    <rect id="矩形" fill="#000000" opacity="0" x="0" y="0" width="18" height="18"></rect>
                    <path d="M0.610896226,1.35045849 C0.610896226,0.945322642 0.938886792,0.617340528 1.34402264,0.617340528 L16.6620226,0.617340528 C16.9247749,0.616084468 17.1681109,0.755535492 17.2998535,0.982877216 C17.431596,1.21021894 17.431596,1.49068106 17.2998535,1.71802278 C17.1681109,1.94536451 16.9247749,2.08481553 16.6620226,2.08355947 L1.34400566,2.08355947 C0.939127131,2.08355947 0.610896226,1.75533702 0.610896226,1.35045849 L0.610896226,1.35045849 Z M9.00494151,3.41857358 C9.41007736,3.41857358 9.73805094,3.74654717 9.73805094,4.15168302 L9.73805094,16.6555698 C9.73610894,17.0590731 9.40845795,17.3851509 9.00495,17.3851509 C8.60144205,17.3851509 8.27379106,17.0590731 8.27184906,16.6555698 L8.27184906,4.15168302 C8.27184906,3.74654717 8.59980566,3.41857358 9.00494151,3.41857358 L9.00494151,3.41857358 Z" id="形状" fill="#FFFFFF"></path>
                    <path d="M8.48598113,3.63786792 C8.62348618,3.50022957 8.81006308,3.42289394 9.00461887,3.42289394 C9.19917466,3.42289394 9.38575155,3.50022957 9.5232566,3.63786792 L15.0266717,9.14191132 C15.3051162,9.42947341 15.3014315,9.8872214 15.0183938,10.1702637 C14.7353561,10.4533061 14.2776082,10.4569983 13.9900415,10.1785585 L8.48598113,4.6751434 C8.34834278,4.53763834 8.27100714,4.35106145 8.27100714,4.15650566 C8.27100714,3.96194987 8.34834278,3.77537298 8.48598113,3.63786792 Z" id="路径" fill="#FFFFFF"></path>
                    <path d="M9.5232566,3.63786792 C9.66089495,3.77537298 9.73823059,3.96194987 9.73823059,4.15650566 C9.73823059,4.35106145 9.66089495,4.53763834 9.5232566,4.6751434 L4.01919623,10.1785585 C3.83504265,10.3687421 3.56265963,10.4448702 3.30658558,10.3777253 C3.05051153,10.3105805 2.85052818,10.1105939 2.78338753,9.85451871 C2.71624688,9.59844355 2.7923794,9.32606178 2.98256604,9.14191132 L8.48598113,3.63722264 C8.62348618,3.49958429 8.81006308,3.42224865 9.00461887,3.42224865 C9.19917466,3.42224865 9.38575155,3.49958429 9.5232566,3.63722264 L9.5232566,3.63786792 Z" id="路径" fill="#FFFFFF"></path>
                </g>
            </g>
        </g>
    </g>
</svg>

<?xml version="1.0" encoding="utf-8"?>
<!-- Generator: Adobe Illustrator 25.0.0, SVG Export Plug-In . SVG Version: 6.00 Build 0)  -->
<svg version="1.1" id="圖層_1" xmlns="http://www.w3.org/2000/svg" xmlns:xlink="http://www.w3.org/1999/xlink" x="0px" y="0px"
	 viewBox="0 0 18 18" style="enable-background:new 0 0 18 18;" xml:space="preserve">
<style type="text/css">
	.st0{fill-opacity:0;}
</style>
<rect id="矩形" class="st0" width="18" height="18"/>
<path id="形状" d="M0.6,1.4c0-0.4,0.3-0.7,0.7-0.7h15.3c0.3,0,0.5,0.1,0.6,0.4s0.1,0.5,0,0.7s-0.4,0.4-0.6,0.4H1.3
	C0.9,2.1,0.6,1.8,0.6,1.4L0.6,1.4z M9,3.4c0.4,0,0.7,0.3,0.7,0.7v12.5c0,0.4-0.3,0.7-0.7,0.7c-0.4,0-0.7-0.3-0.7-0.7V4.2
	C8.3,3.7,8.6,3.4,9,3.4L9,3.4z"/>
<path id="路径" d="M8.5,3.6C8.6,3.5,8.8,3.4,9,3.4c0.2,0,0.4,0.1,0.5,0.2L15,9.1c0.3,0.3,0.3,0.7,0,1c-0.3,0.3-0.7,0.3-1,0
	L8.5,4.7C8.3,4.5,8.3,4.4,8.3,4.2S8.3,3.8,8.5,3.6z"/>
<path id="路径_1_" d="M9.5,3.6C9.7,3.8,9.7,4,9.7,4.2S9.7,4.5,9.5,4.7L4,10.2c-0.2,0.2-0.5,0.3-0.7,0.2c-0.3-0.1-0.5-0.3-0.5-0.5
	C2.7,9.6,2.8,9.3,3,9.1l5.5-5.5C8.6,3.5,8.8,3.4,9,3.4C9.2,3.4,9.4,3.5,9.5,3.6L9.5,3.6z"/>
</svg>
